X: 42018
T: Walter Bulwer's
R: polka
M: 2/4
K: Dmajor
M:4/4
|:Bc|dcBd g3 f|e2 A2 A2 AB|cBAc f2 ee|e2 dd B2 Bc|
dc B2 g3 f|e2 A2 A3 G|FGAB cdef|g2 gg g2:|
K: DMaj
|:fg|a2 fg a2 fg|ag f2 e4|e2 a2 gf e2|dcde f^efg|
a2 fg a2 fg|ag f2 e2 A2|e2 a2 gfec|d4 d2:|

